X: 29
T:Whistle oure the leave o't. JMP.029
T:Royal Highland Fus. March,aka. JMP.029
M:C|
L:1/8
Q:200
C:"32"Royal Highland Fus. March,aka.
S:John Miller MS. Perth, 1799.(for the fife)
R:Strathspey
O:Scotland
A:Perth
N:
H:1799
Z:vmp.C. Graebe
K:G major
G>DE>G BA B2 | d>eB>g A>G E2 |\
 G>DE>G B>AB>g | G/G/G B>G A2G2 :|!
|de/f/ g>d e>d B2 | d>e B>g A>G E2 |\
de/f/ g>d edeg | G>GBG A2G2|!
 de/f/ g>d e>d B2 | d>e B>g A>G E2 |\
gbeg deBg| G>GBG A2G2 |]
